X:214
T:Steirische Jodler und Taenze Nr. 1 - 48 (12.)
C:traditionell
A:Salzkammergut
S:MIDI erhalten von Christian Amon. Nach einer kopie im besitz von Johann Stoeckl eines manuscriptes. Stoeckl(zitiert von Amon): "diese sammlung wurde 1935 im hause der familie Hohenlohe-Schillingfuerst gefunden. Sie wurde von einem der beiden brueder Steinegger 1866 verfasst. Die originale sind im Ausseer Kammerhofmuseum".
M:3/4
L:1/8
K:G
V:1
Bc |\
dG B2 AB | dA c2 ef | g3 e cF | Gg dc Bc |\
dG B2 AB | dA c2 ef | g3 e cF | G4 |*
V:2
GA |\
BD G2 FG | BF A2 cd | e3 c AD | De BA GA |\
BD G2 FG | BF A2 cd | e3 c Ad | B4 |*
